X:7
T: FAHR MER NET UEBER MEI ACKERLE
N: E1005A
O: Europa, Mitteleuropa, Deutschland, Thueringen
R: Tanz - Lied
M: 3/4
L: 1/8
K: G
 | B3AA2 | c2B2c2 | d2d2d2 |
B3AA2 | c2B2c2 | d4z2 |
d3ed2 | c2d2c2 | B2B2B2 |
d3ed2 | c2d2c2 | B4z2

@@@ Tune index: 4691
